images/distributed.svg

<?xml version="1.0"?>
<svg xmlns="http://www.w3.org/2000/svg" xmlns:xlink="http://www.w3.org/1999/xlink" width="471px" height="564px" viewBox="0 0 471 564" version="1.1">
    <!-- Generator: Sketch 56.3 (81716) - https://sketch.com -->
    <title>images/distributed</title>
    <desc>Created with Sketch.</desc>
    <g id="01---Distributed" stroke="none" stroke-width="1" fill="none" fill-rule="evenodd">
        <rect id="Rectangle-16" stroke="#979797" fill="#D8D8D8" x="155.5" y="8.5" width="160" height="203"/>
        <rect id="Rectangle-9" stroke="#979797" fill="#FFFFFF" x="163.5" y="45.5" width="143" height="159"/>
        <text stroke="none" font-family="Source Code Pro" font-size="12px" font-weight="900" fill="#979797" fill-opacity="1" text-anchor="middle" id="Version-Database-3">
            <tspan x="80" y="67">Version Database</tspan>
        </text>
        <g id="brown" transform="translate(191.000000, 77.000000)">
            <rect id="Rectangle-1" fill="#EFEFE7" fill-rule="evenodd" x="0" y="0" width="89" height="33" rx="16.5"/>
            <text stroke="none" font-family="Source Code Pro" font-size="12px" font-weight="900" fill="#979797" fill-opacity="1" text-anchor="middle" id="C6">
                <tspan x="44.5" y="21">Version 3</tspan>
            </text>
        </g>
        <g id="brown" transform="translate(191.000000, 119.000000)">
            <rect id="Rectangle-1" fill="#EFEFE7" fill-rule="evenodd" x="0" y="0" width="89" height="33" rx="16.5"/>
            <text stroke="none" font-family="Source Code Pro" font-size="12px" font-weight="900" fill="#979797" fill-opacity="1" text-anchor="middle" id="C6">
                <tspan x="44.5" y="21">Version 2</tspan>
            </text>
        </g>
        <g id="brown" transform="translate(191.000000, 161.000000)">
            <rect id="Rectangle-1" fill="#EFEFE7" fill-rule="evenodd" x="0" y="0" width="89" height="33" rx="16.5"/>
            <text stroke="none" font-family="Source Code Pro" font-size="12px" font-weight="900" fill="#979797" fill-opacity="1" text-anchor="middle" id="C6">
                <tspan x="44.5" y="21">Version 1</tspan>
            </text>
        </g>
        <path d="M235.5,110.5 L235.5,118.5" id="Line-7" stroke="#8F8981" fill="#8F8981" stroke-linecap="square"/>
        <path d="M235.5,152.5 L235.5,160.5" id="Line-8" stroke="#8F8981" fill="#8F8981" stroke-linecap="square"/>
        <text stroke="none" font-family="Source Code Pro" font-size="12px" font-weight="900" fill="#979797" fill-opacity="1" text-anchor="middle" id="Server-Computer">
            <tspan x="80" y="32">Server Computer</tspan>
        </text>
        <g id="Group" transform="translate(9.000000, 301.000000)">
            <rect id="Rectangle-17" stroke="#979797" fill="#D8D8D8" x="0.5" y="0.5" width="160" height="253"/>
            <g id="Group-2" transform="translate(8.000000, 87.000000)">
                <rect id="Rectangle-9" stroke="#979797" fill="#FFFFFF" x="0.5" y="0.5" width="143" height="159"/>
                <text stroke="none" font-family="Source Code Pro" font-size="12px" font-weight="900" fill="#979797" fill-opacity="1" text-anchor="middle" id="Version-Database-3">
                    <tspan x="71.5" y="22">Version Database</tspan>
                </text>
                <g id="brown" transform="translate(28.000000, 32.000000)">
                    <rect id="Rectangle-1" fill="#EFEFE7" fill-rule="evenodd" x="0" y="0" width="89" height="33" rx="16.5"/>
                    <text stroke="none" font-family="Source Code Pro" font-size="12px" font-weight="900" fill="#979797" fill-opacity="1" text-anchor="middle" id="C6">
                        <tspan x="44.5" y="21">Version 3</tspan>
                    </text>
                </g>
                <g id="brown" transform="translate(28.000000, 74.000000)">
                    <rect id="Rectangle-1" fill="#EFEFE7" fill-rule="evenodd" x="0" y="0" width="89" height="33" rx="16.5"/>
                    <text stroke="none" font-family="Source Code Pro" font-size="12px" font-weight="900" fill="#979797" fill-opacity="1" text-anchor="middle" id="C6">
                        <tspan x="44.5" y="21">Version 2</tspan>
                    </text>
                </g>
                <g id="brown" transform="translate(28.000000, 116.000000)">
                    <rect id="Rectangle-1" fill="#EFEFE7" fill-rule="evenodd" x="0" y="0" width="89" height="33" rx="16.5"/>
                    <text stroke="none" font-family="Source Code Pro" font-size="12px" font-weight="900" fill="#979797" fill-opacity="1" text-anchor="middle" id="C6">
                        <tspan x="44.5" y="21">Version 1</tspan>
                    </text>
                </g>
                <path d="M72.5,65.5 L72.5,73.5" id="Line-7" stroke="#8F8981" fill="#8F8981" stroke-linecap="square"/>
                <path d="M72.5,107.5 L72.5,115.5" id="Line-8" stroke="#8F8981" fill="#8F8981" stroke-linecap="square"/>
            </g>
            <text stroke="none" font-family="Source Code Pro" font-size="12px" font-weight="900" fill="#979797" fill-opacity="1" text-anchor="middle" id="Computer-A">
                <tspan x="80" y="22">Computer A</tspan>
            </text>
            <g id="blue" transform="translate(36.000000, 31.000000)">
                <rect id="Rectangle-1" fill="#00909A" fill-rule="evenodd" x="0" y="0" width="89" height="33" rx="16.5"/>
                <text stroke="none" font-family="Source Code Pro" font-size="12px" font-weight="900" fill="#979797" fill-opacity="1" text-anchor="middle" id="tree">
                    <tspan x="44.5" y="20">File</tspan>
                </text>
            </g>
            <path id="Line" d="M81,73 L81,87 L80,87 L80,73 L76,73 L80.5,64 L85,73 L81,73 Z" fill="#8F8981" fill-rule="nonzero"/>
        </g>
        <g id="Group" transform="translate(301.000000, 301.000000)">
            <rect id="Rectangle-18" stroke="#979797" fill="#D8D8D8" x="0.5" y="0.5" width="160" height="253"/>
            <g id="Group-3" transform="translate(9.000000, 87.000000)">
                <rect id="Rectangle-9" stroke="#979797" fill="#FFFFFF" x="0.5" y="0.5" width="143" height="159"/>
                <text stroke="none" font-family="Source Code Pro" font-size="12px" font-weight="900" fill="#979797" fill-opacity="1" text-anchor="middle" id="Version-Database-3">
                    <tspan x="71.5" y="22">Version Database</tspan>
                </text>
                <g id="brown" transform="translate(28.000000, 32.000000)">
                    <rect id="Rectangle-1" fill="#EFEFE7" fill-rule="evenodd" x="0" y="0" width="89" height="33" rx="16.5"/>
                    <text stroke="none" font-family="Source Code Pro" font-size="12px" font-weight="900" fill="#979797" fill-opacity="1" text-anchor="middle" id="C6">
                        <tspan x="44.5" y="21">Version 3</tspan>
                    </text>
                </g>
                <g id="brown" transform="translate(28.000000, 74.000000)">
                    <rect id="Rectangle-1" fill="#EFEFE7" fill-rule="evenodd" x="0" y="0" width="89" height="33" rx="16.5"/>
                    <text stroke="none" font-family="Source Code Pro" font-size="12px" font-weight="900" fill="#979797" fill-opacity="1" text-anchor="middle" id="C6">
                        <tspan x="44.5" y="21">Version 2</tspan>
                    </text>
                </g>
                <g id="brown" transform="translate(28.000000, 116.000000)">
                    <rect id="Rectangle-1" fill="#EFEFE7" fill-rule="evenodd" x="0" y="0" width="89" height="33" rx="16.5"/>
                    <text stroke="none" font-family="Source Code Pro" font-size="12px" font-weight="900" fill="#979797" fill-opacity="1" text-anchor="middle" id="C6">
                        <tspan x="44.5" y="21">Version 1</tspan>
                    </text>
                </g>
                <path d="M72.5,65.5 L72.5,73.5" id="Line-7" stroke="#8F8981" fill="#8F8981" stroke-linecap="square"/>
                <path d="M72.5,107.5 L72.5,115.5" id="Line-8" stroke="#8F8981" fill="#8F8981" stroke-linecap="square"/>
            </g>
            <text stroke="none" font-family="Source Code Pro" font-size="12px" font-weight="900" fill="#979797" fill-opacity="1" text-anchor="middle" id="Computer-B">
                <tspan x="80" y="22">Computer B</tspan>
            </text>
            <g id="blue" transform="translate(36.000000, 31.000000)">
                <rect id="Rectangle-1" fill="#00909A" fill-rule="evenodd" x="0" y="0" width="89" height="33" rx="16.5"/>
                <text stroke="none" font-family="Source Code Pro" font-size="12px" font-weight="900" fill="#979797" fill-opacity="1" text-anchor="middle" id="tree">
                    <tspan x="44.5" y="20">File</tspan>
                </text>
            </g>
            <path id="Line-2" d="M81,73 L81,87 L80,87 L80,73 L76,73 L80.5,64 L85,73 L81,73 Z" fill="#8F8981" fill-rule="nonzero"/>
        </g>
        <path id="Line" d="M158.274034,289.449861 L186.801288,220.169389 L183.102575,218.64639 L190.690375,212.037661 L191.424678,222.073138 L187.725966,220.550139 L159.198712,289.830611 L162.897425,291.35361 L155.309625,297.962339 L154.575322,287.926862 L158.274034,289.449861 Z" fill="#8F8981" fill-rule="nonzero"/>
        <path id="Line-3" d="M311.923893,291.772681 L283.145483,218.593295 L279.422985,220.057198 L280.317012,210.034688 L287.798604,216.763416 L284.076107,218.227319 L312.854517,291.406705 L316.577015,289.942802 L315.682988,299.965312 L308.201396,293.236584 L311.923893,291.772681 Z" fill="#8F8981" fill-rule="nonzero"/>
        <path id="Line-4" d="M292,411 L179,411 L179,415 L170,410.5 L179,406 L179,410 L292,410 L292,406 L301,410.5 L292,415 L292,411 Z" fill="#8F8981" fill-rule="nonzero"/>
    </g>
</svg>

<?xml version="1.0" encoding="UTF-8"?>
<svg width="471px" height="564px" version="1.1" viewBox="0 0 471 564" xmlns="http://www.w3.org/2000/svg" xmlns:cc="http://creativecommons.org/ns#" xmlns:dc="http://purl.org/dc/elements/1.1/" xmlns:rdf="http://www.w3.org/1999/02/22-rdf-syntax-ns#">
 <metadata>
  <rdf:RDF>
   <cc:Work rdf:about="">
    <dc:format>image/svg+xml</dc:format>
    <dc:type rdf:resource="http://purl.org/dc/dcmitype/StillImage"/>
    <dc:title>images/distributed</dc:title>
   </cc:Work>
  </rdf:RDF>
 </metadata>
 <title>images/distributed</title>
 <desc>Created with Sketch.</desc>
 <g fill-rule="evenodd">
  <rect x="155.5" y="8.5" width="160" height="203" fill="#d8d8d8" stroke="#979797"/>
  <rect x="163.5" y="45.5" width="143" height="159" fill="white" stroke="#979797"/>
  <text transform="translate(155.77)" fill="#4d4d4d" font-family="'Source Code Pro'" font-size="12px" font-weight="900" text-anchor="middle"><tspan x="80" y="67" fill="#4d4d4d">Version Database</tspan></text>
 </g>
 <g fill="none" fill-rule="evenodd">
  <g id="brown" transform="translate(191,77)">
   <rect width="89" height="33" rx="16.5" fill="#efefe7" fill-rule="evenodd"/>
   <text fill="#979797" font-family="'Source Code Pro'" font-size="12px" font-weight="900" text-anchor="middle"><tspan x="44.5" y="21">Version 3</tspan></text>
  </g>
  <g transform="translate(191,119)">
   <rect width="89" height="33" rx="16.5" fill="#efefe7" fill-rule="evenodd"/>
   <text fill="#979797" font-family="'Source Code Pro'" font-size="12px" font-weight="900" text-anchor="middle"><tspan x="44.5" y="21">Version 2</tspan></text>
  </g>
  <g transform="translate(191,161)">
   <rect width="89" height="33" rx="16.5" fill="#efefe7" fill-rule="evenodd"/>
   <text fill="#979797" font-family="'Source Code Pro'" font-size="12px" font-weight="900" text-anchor="middle"><tspan x="44.5" y="21">Version 1</tspan></text>
  </g>
 </g>
 <g fill-rule="evenodd">
  <path d="m235.5 110.5v8" fill="#8f8981" stroke="#8f8981" stroke-linecap="square"/>
  <path d="m235.5 152.5v8" fill="#8f8981" stroke="#8f8981" stroke-linecap="square"/>
  <text id="Server-Computer" transform="translate(155.52)" fill="#4d4d4d" font-family="'Source Code Pro'" font-size="12px" font-weight="900" text-anchor="middle"><tspan x="80" y="32" fill="#4d4d4d">Server Computer</tspan></text>
  <rect transform="translate(9,301)" x=".5" y=".5" width="160" height="253" fill="#d8d8d8" stroke="#979797"/>
  <rect transform="translate(17,388)" x=".5" y=".5" width="143" height="159" fill="white" stroke="#979797"/>
  <text transform="translate(17,388)" fill="#4d4d4d" font-family="'Source Code Pro'" font-size="12px" font-weight="900" text-anchor="middle"><tspan x="71.5" y="22" fill="#4d4d4d">Version Database</tspan></text>
 </g>
 <g fill="none" fill-rule="evenodd">
  <g transform="translate(45,420)">
   <rect width="89" height="33" rx="16.5" fill="#efefe7" fill-rule="evenodd"/>
   <text fill="#979797" font-family="'Source Code Pro'" font-size="12px" font-weight="900" text-anchor="middle"><tspan x="44.5" y="21">Version 3</tspan></text>
  </g>
  <g transform="translate(45,462)">
   <rect width="89" height="33" rx="16.5" fill="#efefe7" fill-rule="evenodd"/>
   <text fill="#979797" font-family="'Source Code Pro'" font-size="12px" font-weight="900" text-anchor="middle"><tspan x="44.5" y="21">Version 2</tspan></text>
  </g>
  <g transform="translate(45,504)">
   <rect width="89" height="33" rx="16.5" fill="#efefe7" fill-rule="evenodd"/>
   <text fill="#979797" font-family="'Source Code Pro'" font-size="12px" font-weight="900" text-anchor="middle"><tspan x="44.5" y="21">Version 1</tspan></text>
  </g>
 </g>
 <g fill-rule="evenodd">
  <g>
   <path transform="translate(17,388)" d="m72.5 65.5v8" fill="#8f8981" stroke="#8f8981" stroke-linecap="square"/>
   <path transform="translate(17,388)" d="m72.5 107.5v8" fill="#8f8981" stroke="#8f8981" stroke-linecap="square"/>
   <text id="Computer-A" transform="translate(9.1977 301)" fill="#4d4d4d" font-family="'Source Code Pro'" font-size="12px" font-weight="900" text-anchor="middle"><tspan x="80" y="22" fill="#4d4d4d">Computer A</tspan></text>
  </g>
  <rect transform="translate(45,332)" width="89" height="33" rx="16.5" fill="#00909a"/>
  <text id="tree" transform="translate(45,332)" fill="white" fill-opacity=".8" font-family="'Source Code Pro'" font-size="12px" font-weight="900" text-anchor="middle"><tspan x="44.5" y="20" fill="white" fill-opacity=".8">File</tspan></text>
 </g>
 <path id="Line" transform="translate(9,301)" d="m81 73v14h-1v-14h-4l4.5-9 4.5 9z" fill="#8f8981"/>
 <g fill-rule="evenodd">
  <rect transform="translate(301,301)" x=".5" y=".5" width="160" height="253" fill="#d8d8d8" stroke="#979797"/>
  <rect transform="translate(310,388)" x=".5" y=".5" width="143" height="159" fill="white" stroke="#979797"/>
  <text transform="translate(310,388)" fill="#4d4d4d" font-family="'Source Code Pro'" font-size="12px" font-weight="900" text-anchor="middle"><tspan x="71.5" y="22" fill="#4d4d4d">Version Database</tspan></text>
 </g>
 <g fill="none" fill-rule="evenodd">
  <g transform="translate(338,420)">
   <rect width="89" height="33" rx="16.5" fill="#efefe7" fill-rule="evenodd"/>
   <text fill="#979797" font-family="'Source Code Pro'" font-size="12px" font-weight="900" text-anchor="middle"><tspan x="44.5" y="21">Version 3</tspan></text>
  </g>
  <g transform="translate(338,462)">
   <rect width="89" height="33" rx="16.5" fill="#efefe7" fill-rule="evenodd"/>
   <text fill="#979797" font-family="'Source Code Pro'" font-size="12px" font-weight="900" text-anchor="middle"><tspan x="44.5" y="21">Version 2</tspan></text>
  </g>
  <g transform="translate(338,504)">
   <rect width="89" height="33" rx="16.5" fill="#efefe7" fill-rule="evenodd"/>
   <text fill="#979797" font-family="'Source Code Pro'" font-size="12px" font-weight="900" text-anchor="middle"><tspan x="44.5" y="21">Version 1</tspan></text>
  </g>
 </g>
 <g fill-rule="evenodd">
  <g>
   <path transform="translate(310,388)" d="m72.5 65.5v8" fill="#8f8981" stroke="#8f8981" stroke-linecap="square"/>
   <path transform="translate(310,388)" d="m72.5 107.5v8" fill="#8f8981" stroke="#8f8981" stroke-linecap="square"/>
   <text id="Computer-B" transform="translate(301.39 301)" fill="#4d4d4d" font-family="'Source Code Pro'" font-size="12px" font-weight="900" text-anchor="middle"><tspan x="80" y="22" fill="#4d4d4d">Computer B</tspan></text>
  </g>
  <rect transform="translate(337,332)" width="89" height="33" rx="16.5" fill="#00909a"/>
  <text transform="translate(337,332)" fill="white" fill-opacity=".8" font-family="'Source Code Pro'" font-size="12px" font-weight="900" text-anchor="middle"><tspan x="44.5" y="20" fill="white" fill-opacity=".8">File</tspan></text>
 </g>
 <g fill="#8f8981">
  <path transform="translate(301,301)" d="m81 73v14h-1v-14h-4l4.5-9 4.5 9z"/>
  <path d="m158.27 289.45 28.527-69.28-3.6987-1.523 7.5878-6.6087.73431 10.035-3.6987-1.523-28.527 69.28 3.6987 1.523-7.5878 6.6087-.7343-10.035z"/>
  <path d="m311.92 291.77-28.778-73.179-3.7225 1.4639.89403-10.023 7.4816 6.7287-3.7225 1.4639 28.778 73.179 3.7225-1.4639-.89403 10.023-7.4816-6.7287z"/>
  <path d="m292 411h-113v4l-9-4.5 9-4.5v4h113v-4l9 4.5-9 4.5z"/>
 </g>
</svg>
